src/icons/calendar.svg

<svg width="16" height="15" viewBox="0 0 16 15" fill="none" xmlns="http://www.w3.org/2000/svg">
    <path
        d="M3.27002 14.5601H13.3481C14.9302 14.5601 15.7505 13.7397 15.7505 12.1797V3.26611C15.7505 1.69873 14.9302 0.885742 13.3481 0.885742H3.27002C1.68799 0.885742 0.867676 1.69873 0.867676 3.26611V12.1797C0.867676 13.7471 1.68799 14.5601 3.27002 14.5601ZM3.24805 13.1245C2.64014 13.1245 2.30322 12.8022 2.30322 12.165V5.39746C2.30322 4.75293 2.64014 4.43799 3.24805 4.43799H13.3555C13.9707 4.43799 14.3149 4.75293 14.3149 5.39746V12.165C14.3149 12.8022 13.9707 13.1245 13.3555 13.1245H3.24805ZM6.89551 6.97949H7.32764C7.59131 6.97949 7.6792 6.89893 7.6792 6.63525V6.21045C7.6792 5.94678 7.59131 5.86621 7.32764 5.86621H6.89551C6.63916 5.86621 6.55127 5.94678 6.55127 6.21045V6.63525C6.55127 6.89893 6.63916 6.97949 6.89551 6.97949ZM9.29785 6.97949H9.72266C9.98633 6.97949 10.0742 6.89893 10.0742 6.63525V6.21045C10.0742 5.94678 9.98633 5.86621 9.72266 5.86621H9.29785C9.03418 5.86621 8.94629 5.94678 8.94629 6.21045V6.63525C8.94629 6.89893 9.03418 6.97949 9.29785 6.97949ZM11.6929 6.97949H12.1177C12.3813 6.97949 12.4692 6.89893 12.4692 6.63525V6.21045C12.4692 5.94678 12.3813 5.86621 12.1177 5.86621H11.6929C11.4292 5.86621 11.3413 5.94678 11.3413 6.21045V6.63525C11.3413 6.89893 11.4292 6.97949 11.6929 6.97949ZM4.50049 9.33789H4.93262C5.19629 9.33789 5.28418 9.25732 5.28418 8.99365V8.56885C5.28418 8.30518 5.19629 8.22461 4.93262 8.22461H4.50049C4.24414 8.22461 4.15625 8.30518 4.15625 8.56885V8.99365C4.15625 9.25732 4.24414 9.33789 4.50049 9.33789ZM6.89551 9.33789H7.32764C7.59131 9.33789 7.6792 9.25732 7.6792 8.99365V8.56885C7.6792 8.30518 7.59131 8.22461 7.32764 8.22461H6.89551C6.63916 8.22461 6.55127 8.30518 6.55127 8.56885V8.99365C6.55127 9.25732 6.63916 9.33789 6.89551 9.33789ZM9.29785 9.33789H9.72266C9.98633 9.33789 10.0742 9.25732 10.0742 8.99365V8.56885C10.0742 8.30518 9.98633 8.22461 9.72266 8.22461H9.29785C9.03418 8.22461 8.94629 8.30518 8.94629 8.56885V8.99365C8.94629 9.25732 9.03418 9.33789 9.29785 9.33789ZM11.6929 9.33789H12.1177C12.3813 9.33789 12.4692 9.25732 12.4692 8.99365V8.56885C12.4692 8.30518 12.3813 8.22461 12.1177 8.22461H11.6929C11.4292 8.22461 11.3413 8.30518 11.3413 8.56885V8.99365C11.3413 9.25732 11.4292 9.33789 11.6929 9.33789ZM4.50049 11.6963H4.93262C5.19629 11.6963 5.28418 11.6157 5.28418 11.3521V10.9272C5.28418 10.6636 5.19629 10.583 4.93262 10.583H4.50049C4.24414 10.583 4.15625 10.6636 4.15625 10.9272V11.3521C4.15625 11.6157 4.24414 11.6963 4.50049 11.6963ZM6.89551 11.6963H7.32764C7.59131 11.6963 7.6792 11.6157 7.6792 11.3521V10.9272C7.6792 10.6636 7.59131 10.583 7.32764 10.583H6.89551C6.63916 10.583 6.55127 10.6636 6.55127 10.9272V11.3521C6.55127 11.6157 6.63916 11.6963 6.89551 11.6963ZM9.29785 11.6963H9.72266C9.98633 11.6963 10.0742 11.6157 10.0742 11.3521V10.9272C10.0742 10.6636 9.98633 10.583 9.72266 10.583H9.29785C9.03418 10.583 8.94629 10.6636 8.94629 10.9272V11.3521C8.94629 11.6157 9.03418 11.6963 9.29785 11.6963Z"
        fill="white" />
</svg>

<svg xmlns="http://www.w3.org/2000/svg" width="16" height="15" fill="none"><path fill="#fff" d="M3.27 14.56h10.078c1.582 0 2.402-.82 2.402-2.38V3.266c0-1.567-.82-2.38-2.402-2.38H3.27c-1.582 0-2.402.813-2.402 2.38v8.914c0 1.567.82 2.38 2.402 2.38Zm-.022-1.436c-.608 0-.945-.322-.945-.959V5.397c0-.644.337-.959.945-.959h10.107c.616 0 .96.315.96.96v6.767c0 .637-.344.96-.96.96H3.248ZM6.896 6.98h.432c.263 0 .351-.08.351-.344V6.21c0-.263-.088-.344-.351-.344h-.432c-.257 0-.345.08-.345.344v.425c0 .264.088.344.345.344Zm2.402 0h.425c.263 0 .351-.08.351-.344V6.21c0-.263-.088-.344-.351-.344h-.425c-.264 0-.352.08-.352.344v.425c0 .264.088.344.352.344Zm2.395 0h.425c.263 0 .351-.08.351-.344V6.21c0-.263-.088-.344-.351-.344h-.425c-.264 0-.352.08-.352.344v.425c0 .264.088.344.352.344ZM4.5 9.338h.433c.263 0 .351-.08.351-.344v-.425c0-.264-.088-.344-.351-.344H4.5c-.256 0-.344.08-.344.344v.425c0 .263.088.344.344.344Zm2.396 0h.432c.263 0 .351-.08.351-.344v-.425c0-.264-.088-.344-.351-.344h-.432c-.257 0-.345.08-.345.344v.425c0 .263.088.344.345.344Zm2.402 0h.425c.263 0 .351-.08.351-.344v-.425c0-.264-.088-.344-.351-.344h-.425c-.264 0-.352.08-.352.344v.425c0 .263.088.344.352.344Zm2.395 0h.425c.263 0 .351-.08.351-.344v-.425c0-.264-.088-.344-.351-.344h-.425c-.264 0-.352.08-.352.344v.425c0 .263.088.344.352.344ZM4.5 11.696h.433c.263 0 .351-.08.351-.344v-.425c0-.263-.088-.344-.351-.344H4.5c-.256 0-.344.08-.344.344v.425c0 .264.088.344.344.344Zm2.396 0h.432c.263 0 .351-.08.351-.344v-.425c0-.263-.088-.344-.351-.344h-.432c-.257 0-.345.08-.345.344v.425c0 .264.088.344.345.344Zm2.402 0h.425c.263 0 .351-.08.351-.344v-.425c0-.263-.088-.344-.351-.344h-.425c-.264 0-.352.08-.352.344v.425c0 .264.088.344.352.344Z"/></svg>
